images/category_icons/audio-icon.svg

<svg width="80" height="80" viewBox="0 0 80 80" fill="none" xmlns="http://www.w3.org/2000/svg">
<path d="M39.6965 37.6899C39.049 37.6899 38.5243 38.2147 38.5243 38.8621V46.0283C38.5243 56.0032 30.4092 64.1182 20.4343 64.1182C10.4596 64.1182 2.34438 56.0032 2.34438 46.0283V38.8621C2.34438 38.2147 1.81954 37.6899 1.17219 37.6899C0.524845 37.6899 0 38.2147 0 38.8621V46.0283C0 55.7931 6.88518 63.9786 16.0552 65.9887L15.3199 71.4931H10.3747C7.19596 71.4931 4.60955 74.0794 4.60955 77.2583C4.60955 78.77 5.83939 80 7.35112 80H33.5175C35.0292 80 36.2592 78.7702 36.2592 77.2583C36.2592 74.0794 33.6729 71.4931 30.4939 71.4931H25.5488L24.8135 65.9887C33.9836 63.9784 40.8687 55.7929 40.8687 46.0283V38.8621C40.8689 38.2147 40.344 37.6899 39.6965 37.6899ZM33.9146 77.2584C33.9146 77.4775 33.7365 77.6556 33.5175 77.6556H7.35112C7.13221 77.6556 6.95409 77.4775 6.95409 77.2584C6.95409 75.3724 8.48862 73.8378 10.3747 73.8378H30.4939C32.38 73.8378 33.9146 75.3724 33.9146 77.2584ZM23.1837 71.4933H17.6851L18.3708 66.3592C19.0496 66.4276 19.7379 66.4628 20.4343 66.4628C21.1307 66.4628 21.8191 66.4275 22.4979 66.359L23.1837 71.4933Z" fill="black"/>
<path d="M48.211 10.293H71.6562C72.3037 10.293 72.8284 9.76815 72.8284 9.1208C72.8284 8.47345 72.3037 7.94861 71.6562 7.94861H48.211C47.5635 7.94861 47.0388 8.47345 47.0388 9.1208C47.0388 9.76815 47.5637 10.293 48.211 10.293Z" fill="black"/>
<path d="M48.211 19.1663H71.6562C72.3037 19.1663 72.8284 18.6414 72.8284 17.9941C72.8284 17.3467 72.3037 16.8219 71.6562 16.8219H48.211C47.5635 16.8219 47.0388 17.3467 47.0388 17.9941C47.0388 18.6414 47.5637 19.1663 48.211 19.1663Z" fill="black"/>
<path d="M9.01078 53.1922C9.57969 52.8832 9.79032 52.1715 9.48141 51.6026C8.49844 49.7932 7.9789 47.7404 7.9789 45.6663V43.8456H32.8899V45.6663C32.8899 52.5343 27.3022 58.1218 20.4344 58.1218C17.6332 58.1218 14.9877 57.214 12.7841 55.4963C12.2738 55.0983 11.537 55.1896 11.1389 55.7002C10.7408 56.2108 10.832 56.9474 11.3428 57.3454C13.9621 59.3871 17.106 60.4663 20.4344 60.4663C28.5952 60.4663 35.2345 53.8271 35.2345 45.6663C35.2345 42.8038 35.2345 28.9178 35.2345 26.5079C35.2345 18.3473 28.5952 11.7079 20.4344 11.7079C12.2738 11.7079 5.63452 18.3471 5.63452 26.5079V45.6663C5.63452 48.13 6.25234 50.5697 7.42125 52.7216C7.73031 53.2907 8.44156 53.5013 9.01078 53.1922ZM20.4343 14.0524C26.4469 14.0524 31.478 18.3351 32.6379 24.0101H25.1441C24.4966 24.0101 23.9719 24.535 23.9719 25.1823C23.9719 25.8297 24.4968 26.3545 25.1441 26.3545H32.8859C32.8865 26.4057 32.8898 26.4564 32.8898 26.5078V29.4623H25.1441C24.4966 29.4623 23.9719 29.9872 23.9719 30.6345C23.9719 31.2819 24.4968 31.8067 25.1441 31.8067H32.8898V34.9145H25.1441C24.4966 34.9145 23.9719 35.4394 23.9719 36.0867C23.9719 36.7341 24.4968 37.2589 25.1441 37.2589H32.8898V41.5006H7.9789V37.2589H15.7244C16.3719 37.2589 16.8966 36.7341 16.8966 36.0867C16.8966 35.4394 16.3717 34.9145 15.7244 34.9145H7.9789V31.8067H15.7244C16.3719 31.8067 16.8966 31.2819 16.8966 30.6345C16.8966 29.9872 16.3717 29.4623 15.7244 29.4623H7.9789V26.5079C7.9789 26.4565 7.98219 26.4059 7.98281 26.3547H15.7244C16.3719 26.3547 16.8966 25.8298 16.8966 25.1825C16.8966 24.5351 16.3717 24.0103 15.7244 24.0103H8.23062C9.39063 18.3351 14.4216 14.0524 20.4343 14.0524Z" fill="black"/>
<path d="M70.5902 0H47.8181C42.6934 0 38.5242 4.16923 38.5242 9.29394V11.4324C38.5242 12.0797 39.049 12.6046 39.6964 12.6046C40.3439 12.6046 40.8686 12.0797 40.8686 11.4324V9.29394C40.8686 5.46205 43.9861 2.34454 47.818 2.34454H70.5901C74.422 2.34454 77.5393 5.46205 77.5393 9.29394V19.051C77.5393 22.8829 74.4218 26.0004 70.5901 26.0004H57.4866C56.328 26.0004 55.2294 26.5598 54.5477 27.497L48.9839 35.1473V29.3431C48.9839 27.6492 47.8472 26.1987 46.2198 25.8159C43.0691 25.0748 40.8687 22.293 40.8687 19.051V16.9126C40.8687 16.2652 40.3439 15.7404 39.6965 15.7404C39.049 15.7404 38.5244 16.2652 38.5244 16.9126V19.051C38.5244 23.3863 41.4681 27.1067 45.6833 28.0981C46.2375 28.2284 46.6397 28.752 46.6397 29.3429V36.4779C46.6397 38.3251 49.011 39.0964 50.0975 37.6023L56.4441 28.8757C56.6858 28.5432 57.0758 28.3446 57.4869 28.3446H70.5904C75.7151 28.3446 79.8842 24.1754 79.8842 19.0507V9.29394C79.884 4.16923 75.7148 0 70.5902 0V0Z" fill="black"/>
</svg>

<svg xmlns="http://www.w3.org/2000/svg" fill="none" viewBox="0 0 80 80"><path fill="#000" d="M39.697 37.69c-.648 0-1.173.525-1.173 1.172v7.166c0 9.975-8.115 18.09-18.09 18.09-9.974 0-18.09-8.115-18.09-18.09v-7.166a1.172 1.172 0 00-2.344 0v7.166c0 9.765 6.885 17.95 16.055 19.96l-.735 5.505h-4.945a5.772 5.772 0 00-5.765 5.765A2.745 2.745 0 007.35 80h26.166a2.745 2.745 0 002.742-2.742 5.772 5.772 0 00-5.765-5.765h-4.945l-.735-5.504c9.17-2.01 16.055-10.196 16.055-19.96v-7.167c0-.647-.525-1.172-1.172-1.172zm-5.782 39.568c0 .22-.178.398-.398.398H7.351a.398.398 0 01-.397-.398 3.425 3.425 0 013.42-3.42h20.12a3.425 3.425 0 013.42 3.42zm-10.731-5.765h-5.499l.686-5.134a20.576 20.576 0 004.127 0l.686 5.134zM48.211 10.293h23.445a1.172 1.172 0 100-2.344H48.211a1.172 1.172 0 100 2.344zM48.211 19.166h23.445a1.172 1.172 0 100-2.344H48.211a1.172 1.172 0 100 2.344z"/><path fill="#000" d="M9.01 53.192c.57-.309.78-1.02.471-1.59a12.47 12.47 0 01-1.502-5.936v-1.82h24.91v1.82c0 6.868-5.587 12.456-12.455 12.456-2.8 0-5.446-.908-7.65-2.626a1.172 1.172 0 00-1.441 1.85 14.655 14.655 0 009.091 3.12c8.161 0 14.8-6.639 14.8-14.8V26.508c0-8.16-6.639-14.8-14.8-14.8-8.16 0-14.8 6.64-14.8 14.8v19.158c0 2.464.618 4.904 1.787 7.056.31.569 1.02.78 1.59.47zm11.424-39.14c6.013 0 11.044 4.283 12.204 9.958h-7.494a1.172 1.172 0 100 2.345h7.742c0 .05.004.101.004.153v2.954h-7.746a1.172 1.172 0 100 2.345h7.746v3.107h-7.746a1.172 1.172 0 100 2.345h7.746V41.5H7.979v-4.242h7.745a1.172 1.172 0 100-2.345H7.98v-3.107h7.745a1.172 1.172 0 100-2.345H7.98v-2.954c0-.052.003-.102.004-.153h7.741a1.172 1.172 0 100-2.345H8.231c1.16-5.675 6.19-9.958 12.203-9.958zM70.59 0H47.818c-5.125 0-9.294 4.17-9.294 9.294v2.138a1.172 1.172 0 002.345 0V9.294a6.957 6.957 0 016.949-6.95H70.59a6.957 6.957 0 016.95 6.95v9.757a6.957 6.957 0 01-6.95 6.95H57.487c-1.159 0-2.258.559-2.94 1.496l-5.563 7.65v-5.804c0-1.694-1.137-3.144-2.764-3.527a6.92 6.92 0 01-5.351-6.765v-2.138a1.172 1.172 0 10-2.345 0v2.138a9.255 9.255 0 007.16 9.047c.553.13.956.654.956 1.245v7.135c0 1.847 2.371 2.618 3.457 1.124l6.347-8.726a1.293 1.293 0 011.043-.531H70.59c5.125 0 9.294-4.17 9.294-9.294V9.294C79.884 4.169 75.714 0 70.59 0z"/></svg>
